X: 7666
T: Coleman's
R: slip jig
M: 9/8
K: Aminor
"Am"e2A A2G E2D|E2A A2B c2d|e2A A2G E2D|"Em"E2G GA^F G3|
"Am"e2A A2G E2D|E2A A2B c2d|e2A A2G E2D|"Em"E2G GA^F G3:|
|:"Am"e2a a2g a3|e2a a2^f gfe|"G" d2g g2f g3|"Em"a2g g2e d2=f|
"Am"e2a a2g a3|e2a a2^f gfe|"G" d2g g2f g3|"Em"a2g g2e d2=f:|

